X: 27211
T: Miss Ramsey
R: reel
M: 4/4
K: Dmajor
|:D3B AGFG|AFAB AGFE|D3F ADFA|1 BdAF EA,CE:|2 BdAF D3g||
|:fd d2 eAce|dcdA Bcde|1 fd d2 eAce|dABG FD D2:|2 faec dAFA|BdAF Dgfe||
|:dcdf adfg|a2 bf gfef||dcdf adfa|1 gbaf eAce:|2 gbaf e3g||
|:fd d2 eAce|dcdA Bcde|1 fd d2 eAce|dABG FD D2:|2 faec dAFA|BdAF EA,CE||

